img/icons/aboutus_goals-icon_5.svg

<svg width="71" height="50" viewBox="0 0 71 50" fill="none" xmlns="http://www.w3.org/2000/svg">
<path d="M28.0842 36.1919C27.4788 36.1919 26.8928 35.8794 26.5608 35.313C26.0725 34.4732 26.3655 33.399 27.2053 32.9107L42.5569 24.024L29.8421 16.4654V26.1138C29.8421 27.0904 29.0608 27.8716 28.0842 27.8716C27.1077 27.8716 26.3264 27.0904 26.3264 26.1138V13.3794C26.3264 12.7544 26.6585 12.1685 27.2249 11.856C27.7913 11.5435 28.4553 11.5435 29.0022 11.8755L46.9514 22.5591C47.4788 22.8716 47.8108 23.4576 47.8108 24.0826C47.8108 24.7076 47.4788 25.274 46.9319 25.5865L28.9827 35.9771C28.6897 36.1138 28.3967 36.1919 28.0842 36.1919Z" fill="url(#paint0_linear)"/>
<path d="M60.4883 50H9.08203C8.10547 50 7.32422 49.2188 7.32422 48.2422C7.32422 47.2656 8.10547 46.4844 9.08203 46.4844H60.4883C64.0039 46.4844 66.8555 43.5938 66.8555 40.0586V9.94141C66.8555 6.38672 64.0039 3.51562 60.4883 3.51562H9.94141C6.46484 3.51562 3.51562 6.46484 3.51562 9.94141V39.2773C3.51562 40.2539 2.73437 41.0352 1.75781 41.0352C0.78125 41.0352 0 40.2539 0 39.2773V9.94141C0 4.45312 4.45312 0 9.94141 0H60.4883C65.9375 0 70.3711 4.45312 70.3711 9.94141V40.0586C70.3516 45.5469 65.9375 50 60.4883 50Z" fill="url(#paint1_linear)"/>
<defs>
<linearGradient id="paint0_linear" x1="47.8108" y1="23.908" x2="26.3242" y2="23.908" gradientUnits="userSpaceOnUse">
<stop stop-color="#4CBA85"/>
<stop offset="1" stop-color="#2569AC"/>
</linearGradient>
<linearGradient id="paint1_linear" x1="70.3711" y1="25" x2="4.83435e-08" y2="25" gradientUnits="userSpaceOnUse">
<stop stop-color="#4CBA85"/>
<stop offset="1" stop-color="#2569AC"/>
</linearGradient>
</defs>
</svg>

<svg width="71" height="50" fill="none" xmlns="http://www.w3.org/2000/svg"><path d="M28.084 36.192a1.759 1.759 0 01-.879-3.281l15.352-8.887-12.715-7.559v9.649a1.75 1.75 0 01-1.758 1.758 1.75 1.75 0 01-1.758-1.758V13.379c0-.625.332-1.21.899-1.523a1.754 1.754 0 011.777.02l17.95 10.683c.527.313.859.899.859 1.524s-.332 1.191-.88 1.504l-17.948 10.39a2.095 2.095 0 01-.899.215z" fill="url(#paint0_linear)"/><path d="M60.488 50H9.082a1.75 1.75 0 01-1.758-1.758 1.75 1.75 0 011.758-1.758h51.406c3.516 0 6.368-2.89 6.368-6.425V9.94c0-3.554-2.852-6.425-6.368-6.425H9.941c-3.476 0-6.425 2.949-6.425 6.425v29.336a1.75 1.75 0 01-1.758 1.758A1.75 1.75 0 010 39.277V9.941C0 4.453 4.453 0 9.941 0h50.547c5.45 0 9.883 4.453 9.883 9.941V40.06c-.02 5.487-4.433 9.94-9.883 9.94z" fill="url(#paint1_linear)"/><defs><linearGradient id="paint0_linear" x1="47.811" y1="23.908" x2="26.324" y2="23.908" gradientUnits="userSpaceOnUse"><stop stop-color="#4CBA85"/><stop offset="1" stop-color="#2569AC"/></linearGradient><linearGradient id="paint1_linear" x1="70.371" y1="25" x2="0" y2="25" gradientUnits="userSpaceOnUse"><stop stop-color="#4CBA85"/><stop offset="1" stop-color="#2569AC"/></linearGradient></defs></svg>
